svgs/orion_store.svg

<svg width="192" height="192" viewBox="0 0 192 192" fill="none" xmlns="http://www.w3.org/2000/svg">
<path d="M102.852 22L151.979 96.399L46.2328 90.8457L102.852 22Z" stroke="black" stroke-width="12" stroke-linejoin="round"/>
<path d="M81.9301 140.436C81.1791 154.795 68.9534 165.826 54.6234 165.073C40.2933 164.321 29.2852 152.07 30.0363 137.711C30.7873 123.351 43.0129 112.321 57.343 113.073C71.6731 113.826 82.6811 126.076 81.9301 140.436Z" stroke="black" stroke-width="12" stroke-linejoin="round"/>
<path d="M110.09 127.649C110.43 121.147 115.966 116.152 122.455 116.493L150.85 117.984C157.339 118.325 162.324 123.872 161.984 130.374L160.495 158.827C160.155 165.329 154.619 170.324 148.13 169.984L119.735 168.492C113.246 168.152 108.262 162.604 108.602 156.102L110.09 127.649Z" stroke="black" stroke-width="12" stroke-linejoin="round"/>
</svg>

<svg xmlns="http://www.w3.org/2000/svg" width="192" height="192" fill="none" viewBox="0 0 192 192"><path stroke="#000" stroke-linejoin="round" stroke-width="12" d="m102.852 22 49.127 74.399-105.746-5.553zM81.93 140.436c-.75 14.359-12.977 25.39-27.307 24.637-14.33-.752-25.338-13.003-24.587-27.362.751-14.36 12.977-25.39 27.307-24.638 14.33.753 25.338 13.003 24.587 27.363Zm28.16-12.787c.34-6.502 5.876-11.497 12.365-11.156l28.395 1.491c6.489.341 11.474 5.888 11.134 12.39l-1.489 28.453c-.34 6.502-5.876 11.497-12.365 11.157l-28.395-1.492c-6.489-.34-11.473-5.888-11.133-12.39z"/></svg>
